packages/admin/admin-icons/icons/rte-ul.svg

<svg width="16" height="16" viewBox="0 0 16 16" fill="none" xmlns="http://www.w3.org/2000/svg">
<path fill-rule="evenodd" clip-rule="evenodd" d="M1.71622 6.84888C1.04324 6.84888 0.5 7.4007 0.5 8.08431C0.5 8.76792 1.04324 9.31975 1.71622 9.31975C2.38919 9.31975 2.93243 8.76792 2.93243 8.08431C2.93243 7.4007 2.38919 6.84888 1.71622 6.84888ZM1.71622 1.90714C1.04324 1.90714 0.5 2.45896 0.5 3.14257C0.5 3.82618 1.04324 4.37801 1.71622 4.37801C2.38919 4.37801 2.93243 3.82618 2.93243 3.14257C2.93243 2.45896 2.38919 1.90714 1.71622 1.90714ZM1.71622 11.9306C1.11622 11.9306 0.637838 12.4248 0.637838 13.0261C0.637838 13.6273 1.12432 14.1215 1.71622 14.1215C2.30811 14.1215 2.79459 13.6273 2.79459 13.0261C2.79459 12.4248 2.31622 11.9306 1.71622 11.9306ZM4.14865 13.8497H15.5V12.2024H4.14865V13.8497ZM4.14865 8.90793H15.5V7.26069H4.14865V8.90793ZM4.14865 2.31895V3.96619H15.5V2.31895H4.14865Z" fill="#242424"/>
</svg>

<svg width="16" height="16" fill="none" viewBox="0 0 16 16">
  <path fill="#242424" fill-rule="evenodd" d="M1.716 6.836C1.043 6.836.5 7.387.5 8.07s.543 1.235 1.216 1.235c.673 0 1.216-.551 1.216-1.235S2.39 6.836 1.716 6.836Zm0-4.942C1.043 1.894.5 2.446.5 3.129c0 .684.543 1.236 1.216 1.236.673 0 1.216-.552 1.216-1.236 0-.683-.543-1.235-1.216-1.235Zm0 10.023c-.6 0-1.078.495-1.078 1.096 0 .601.486 1.095 1.078 1.095.592 0 1.079-.494 1.079-1.095s-.479-1.096-1.079-1.096Zm2.433 1.92H15.5v-1.648H4.149v1.647Zm0-4.942H15.5V7.247H4.149v1.648Zm0-6.59v1.648H15.5V2.306H4.149Z" clip-rule="evenodd"/>
</svg>
